X:1
T:Tell me it's not over
C:Starsailor
Z:All Rights Reserved
L:1/8
M:4/4
K:G#min
V:1 treble nm="Alto Saxophone" snm="Alto Sax."
%%MIDI control 7 95
%%MIDI control 10 51
V:1
|:"^play 3 times""^Intro""G#m" z8 |"E" z8 |"B" z8 |"F#/A#" z8 :|"^Verse""G#m" z4 d d2 e- | %5
w: ||||thought I lost|
"E" e B2 B- B d2 d- |"B" d4 z4 |"F#/A#" z8 |"G#m" z4 d d2 e- |"E" e B2 B- B(G F2) | %10
w: _ you once _ a- gain|_||all that drink|_ has brought _ some _|
"B" d d2 d- d c2 c- |"F#/A#" c4 z4 |"G#m" z4 d d2 e- |"E" e B2 B- B d2 d- |"B" d4 z4 |"F#/A#" z8 | %16
w: trou- ble to _ our name|_|late at night|_ I feel _ no shame|_||
"G#m" z4 d d2 e- |"E" e B2 B- B(c d2) |"B" d d2 d- d c2 c- |"F#/A#" c4 z d cc- || %20
w: all my old|_ war sto- _ ries _|take me back _ a- gain|_ now the lights|
"^Chorus""G#m" c B4 z z2 |"E" z4 z d cc- |"B" c B4 z z2 |"F#/A#" z4 z d cc- |"G#m" c (B2 G2) z z2 | %25
w: _ out|I dis- co-|_ ver|She is slee-|_ ping _|
"E" z4 z d cc- |"B" c B4 d- d2 |"F#/A#" c2 B2 c d2 c- ||"^Interlude""G#m" c B2 z z4 |"E" z8 | %30
w: with a- no-|_ ther. Ooh, _|tell me it's not o-|_ ver.||
"B" z8 |"F#/A#" z8 |"G#m" z8 |"E" z8 |"B" z8 |"F#/A#" z8 ||"^Verse""G#m" z4 d d2 e- | %37
w: ||||||What a place|
"E" e B2 B- B d2 d- |"B" d4 z4 |"F#/A#" z8 |"G#m" z4 d d2 e- |"E" e B2 B- B(G F2) | %42
w: _ to seal _ your fate|_||A de- ser-|_ ted car _ park _|
"B" d d2 d- d c2 (c |"F#/A#" BA- A2) z4 |"G#m" z4 d d2 e- |"E" e B2 B- B d2 d- |"B" d4 z4 | %47
w: Not e- ven _ a date|_ _ _|Please don't tell|_ me it's _ too late|_|
"F#/A#" z8 |"G#m" z4 d d2 e- |"E" e B2 B- B(c d2) |"B" d d2 d- d c2 c- |"F#/A#" c4 z d cc- | %52
w: |If you love|_ some- one _ don't _|throw it all _ a- way|_ now the lights|
"^Chorus""G#m" c B4 z z2 |"E" z4 z d cc- |"B" c B4 z z2 |"F#/A#" z4 z d cc- |"G#m" c (B2 G2) z z2 | %57
w: _ out|I dis- co-|_ ver|just a wee-|_ kend _|
"E" z4 (3z2 d2 c2 |"B" c B4 z z2 |"F#/A#" c2 B2 c B2 c- ||"^Interlude""G#m" c B2 z z4 |"E" z8 | %62
w: un- der-|co- ver|tell me it's not o-|_ ver.||
"B" z8 |"F#/A#" z8 |"G#m" z8 |"E" z8 |"B" z8 |"F#/A#" c2 c2 c c2 c- |"G#m" c B2 z z4 | z8 |"E" z8 | %71
w: |||||tell me it's not o-|_ ver.|||
 z8 |"G#m" z8 | z8 |"B" z8 |"F#/A#" z4 z d cc- ||"^Chorus""G#m" c B4 z z2 |"E" z4 z d cc- | %78
w: ||||now the lights|_ out|I dis- co-|
"B" c B4 z z2 |"F#/A#" z4 z d cc- |"G#m" c (B2 G2) z z2 |"E" z4 (3z2 d2 c2 |"B" c B4 z z2 | %83
w: _ ver|just a wee-|_ kend _|un- der-|co- ver|
"F#/A#" z4 z d cc- ||"G#m" c d4 z z2 |"E" z2 z e- e3 f |"B" e d4 z z2 |"F#/A#" z4 z d cc- | %88
w: now the lights|_ out|I * dis-|co- ver|She is slee-|
"G#m" c B4 z z2 |"E" z4 z d cc- |"B" c B4 d- d2 |"F#/A#" c2 c2 c d2 c- |"G#m" c !fermata!B2 z z4 |] %93
w: _ ping|with a- no-|_ ther. Ooh, _|tell me it's not o-|_ ver.|

